Hatter-kde/actions/24/gnumeric-autofilter-delete.svg

<svg xmlns="http://www.w3.org/2000/svg" viewBox="0 0 24 24">
  <defs id="defs3051">
    <style type="text/css" id="current-color-scheme">
      .ColorScheme-Text {
        color:#363636;
      }
      </style>
  </defs>
 <path style="fill:currentColor;fill-opacity:1;stroke:none" 
     d="M 6 4 L 5 5 L 5 6 L 5 6.3046875 L 10 13.367188 L 10 17 L 10 17.039062 L 13 19.265625 L 13 18.019531 L 11 16.535156 L 11 14 L 11 13.048828 L 11 13 L 10.964844 13 L 6 5.9882812 L 6 5 L 18 5 L 18 5.9882812 L 13.035156 13 L 14.259766 13 L 19 6.3046875 L 19 5 L 18 4 L 6 4 z M 7 6 L 9 9 L 9 7 L 11 6 L 7 6 z "
     class="ColorScheme-Text"
     />
 <path 
     style="fill:#da4453" 
     d="M 14.990234 14 L 14 14.990234 L 16.009766 17 L 14 19.009766 L 14.990234 20 L 17 17.990234 L 19.009766 20 L 20 19.009766 L 17.990234 17 L 20 14.990234 L 19.009766 14 L 17 16.009766 L 14.990234 14 z "
     />
</svg>

<?xml version="1.0" encoding="UTF-8"?>
<svg viewBox="0 0 24 24" xmlns="http://www.w3.org/2000/svg">
 <defs id="defs3051">
  <style id="current-color-scheme" type="text/css">.ColorScheme-Text {
        color:#363636;
      }</style>
 </defs>
 <path class="ColorScheme-Text" d="m6 4-1 1v1 0.30469l5 7.0625v3.6328 0.039062l3 2.2266v-1.2461l-2-1.4844v-2.5352-0.95117-0.048828h-0.035156l-4.9648-7.0117v-0.98828h12v0.98828l-4.9648 7.0117h1.2246l4.7402-6.6953v-1.3047l-1-1h-12zm1 2 2 3v-2l2-1h-4z" fill="currentColor"/>
 <path d="m14.99 14-0.99023 0.99023 2.0098 2.0098-2.0098 2.0098 0.99023 0.99023 2.0098-2.0098 2.0098 2.0098 0.99023-0.99023-2.0098-2.0098 2.0098-2.0098-0.99023-0.99023-2.0098 2.0098-2.0098-2.0098z" fill="#da4453"/>
</svg>
